build/category/TesterOutline.svg

<svg xmlns="http://www.w3.org/2000/svg" fill="none" viewBox="0 0 24 24" focusable="false"><path d="M0 0H24V24H0z"/><path fill="#74767B" fill-rule="evenodd" d="M19.0957 13.2428C19.5035 13.3996 20 13.1252 20 12.6882L20 7C20 5.34315 18.6569 4 17 4L7 4C5.34315 4 4 5.34315 4 7L4 17C4 18.6569 5.34315 20 7 20L12.6878 20C13.1248 20 13.3992 19.5036 13.2424 19.0957C13.1547 18.8676 12.9422 18.7 12.6978 18.7L7 18.7C6.06112 18.7 5.3 17.9389 5.3 17L5.3 7C5.3 6.06112 6.06112 5.3 7 5.3L17 5.3C17.9389 5.3 18.7 6.06112 18.7 7L18.7 12.6982C18.7 12.9425 18.8676 13.1551 19.0957 13.2428ZM16.0071 8.4901C16.0071 8.13111 15.716 7.8401 15.3571 7.8401L8.67252 7.84009C8.31353 7.84009 8.02252 8.13111 8.02252 8.49009C8.02252 8.84908 8.31353 9.14009 8.67252 9.14009L15.3571 9.14009C15.716 9.14009 16.0071 8.84908 16.0071 8.4901ZM11.3764 11.35C11.7354 11.35 12.0264 11.641 12.0264 12C12.0264 12.359 11.7354 12.65 11.3764 12.65L8.67222 12.65C8.31323 12.65 8.02222 12.359 8.02222 12C8.02222 11.641 8.31323 11.35 8.67222 11.35L11.3764 11.35ZM21.8043 20.8845L20.1674 19.2476C20.5024 18.7389 20.6973 18.1299 20.6973 17.4753C20.6973 15.693 19.2524 14.2481 17.4701 14.2481C15.6878 14.2481 14.243 15.693 14.243 17.4753C14.243 19.2576 15.6878 20.7024 17.4701 20.7024C18.1277 20.7024 18.7393 20.5058 19.2494 20.168L20.8851 21.8037C21.139 22.0576 21.5505 22.0576 21.8044 21.8037C22.0582 21.5499 22.0582 21.1383 21.8043 20.8845ZM17.4701 19.4024C16.4058 19.4024 15.543 18.5396 15.543 17.4753C15.543 16.4109 16.4058 15.5481 17.4701 15.5481C18.5344 15.5481 19.3973 16.4109 19.3973 17.4753C19.3973 18.5396 18.5344 19.4024 17.4701 19.4024Z"/></svg>

<svg xmlns="http://www.w3.org/2000/svg" fill="none" viewBox="0 0 24 24" focusable="false"><path fill="#74767B" fill-rule="evenodd" d="M19.09 13.24c.41.15.91-.12.91-.56V7c0-1.66-1.35-3-3-3H7C5.34 4 4 5.34 4 7v10c0 1.65 1.34 3 3 3h5.68c.44 0 .71-.5.56-.91a.59.59 0 0 0-.55-.39H7c-.94 0-1.7-.77-1.7-1.7V7c0-.94.76-1.71 1.7-1.71h10c.93 0 1.7.77 1.7 1.71v5.69c0 .25.16.46.39.55M16 8.49c0-.36-.29-.65-.65-.65H8.67c-.36 0-.65.29-.65.65 0 .35.29.65.65.65h6.68c.36 0 .65-.3.65-.65m-4.63 2.86c.36 0 .65.29.65.65 0 .35-.29.65-.65.65h-2.7c-.36 0-.65-.3-.65-.65 0-.36.29-.65.65-.65zm8.79 7.89 1.64 1.64c.25.25.25.66 0 .92-.25.25-.67.25-.92 0l-1.64-1.64c-.51.34-1.12.54-1.77.54-1.79 0-3.23-1.45-3.23-3.23s1.44-3.23 3.23-3.23c1.78 0 3.22 1.45 3.22 3.23 0 .65-.19 1.26-.53 1.77m-4.62-1.77c0 1.06.86 1.93 1.93 1.93 1.06 0 1.92-.87 1.92-1.93s-.86-1.93-1.92-1.93c-1.07 0-1.93.87-1.93 1.93"/></svg>
